X: 26760
T: Mill Of Roleen, The
R: jig
M: 6/8
K: Gmajor
|:F|GAG DEG|edB dBA|!roll!G3 DEG|dBG AGE|
G/A/BG DEG|edB dBA|!roll!G3 DGB|AGE G2:|
|:B|ded GB/c/d|ged !trill!edB|d^cd GB/c/d|edB ABc|
d3 GB/c/d|ged edB|GFG DEB|AGE !roll!G2:|

